src/app/assets/svg/responsive.svg

<?xml version="1.0" encoding="UTF-8"?>
<svg width="58px" height="36px" viewBox="0 0 58 36" version="1.1" xmlns="http://www.w3.org/2000/svg" xmlns:xlink="http://www.w3.org/1999/xlink">
    <title>responsive-circle copy</title>
    <g id="Page-1" stroke="none" stroke-width="1" fill="none" fill-rule="evenodd">
        <g id="Blue-Sky-Product-Page" transform="translate(-446.000000, -3384.000000)" fill="#4273B9">
            <g id="responsive-circle-copy" transform="translate(446.000000, 3384.000000)">
                <g id="responsive-icon" transform="translate(0.000000, -0.000000)">
                    <path d="M47.3091561,11.6905821 L47.3091561,2.3707686 C47.3091561,1.13466702 46.3163793,0.143823695 45.0876952,0.143823695 L6.81172662,0.143823695 C5.58304247,0.143823695 4.59026568,1.13466702 4.59026568,2.3707686 L4.59026568,18.0378656 L6.84121504,18.0378656 C9.94732856,18.0378656 12.4744861,20.54931 12.4744861,23.6493743 L12.4744861,28.7311252 L24.8782983,28.7311252 L24.8782983,32.2432234 L18.167717,33.0555187 C17.4934151,33.1369444 17.0137368,33.748128 17.0953215,34.4211166 C17.1710084,35.0440726 17.700817,35.5002529 18.3131932,35.5002529 C18.3633235,35.5002529 18.4134538,35.4973098 18.4626012,35.4914236 L25.9497109,34.5839681 L33.4387865,35.4914236 C33.4879339,35.4973098 33.5380642,35.5002529 33.5881945,35.5002529 C34.2005707,35.5002529 34.7303793,35.0440726 34.8060662,34.4211166 C34.8876508,33.748128 34.4079726,33.1369444 33.7336707,33.0555187 L27.3356666,32.2805026 L27.3356666,28.7311252 L37.7057608,28.7311252 L37.7057608,17.3020908 C37.7057608,14.2020265 40.2221059,11.6905821 43.3282195,11.6905821 L47.3091561,11.6905821 Z" id="Fill-1"></path>
                    <path d="M54.5238911,14.8099727 L47.3090578,14.8099727 L44.0171672,14.8099727 C42.4827865,14.8099727 41.2442729,16.0470553 41.2442729,17.5764857 L41.2442729,28.7308309 L41.2442729,32.5961009 C41.2442729,34.1265124 42.4827865,35.3724243 44.0171672,35.3724243 L54.5238911,35.3724243 C56.0582719,35.3724243 57.2958026,34.1265124 57.2958026,32.5961009 L57.2958026,17.5764857 C57.2958026,16.0470553 56.0582719,14.8099727 54.5238911,14.8099727" id="Fill-4"></path>
                    <path d="M6.84131333,21.5698787 L4.59036397,21.5698787 L2.08384831,21.5698787 C0.933799952,21.5698787 0,22.50186 0,23.6496686 L0,32.8713788 C0,34.0289977 0.933799952,34.959998 2.08384831,34.959998 L6.84131333,34.959998 C8.00119117,34.959998 8.93499112,34.0289977 8.93499112,32.8713788 L8.93499112,28.7314195 L8.93499112,23.6496686 C8.93499112,22.50186 8.00119117,21.5698787 6.84131333,21.5698787" id="Fill-6"></path>
                </g>
            </g>
        </g>
    </g>
</svg>

<svg xmlns="http://www.w3.org/2000/svg" width="58" height="36"><defs/><g fill="#4273B9" fill-rule="evenodd"><path d="M47.31 11.69V2.37A2.22 2.22 0 0045.087.145H6.812A2.22 2.22 0 004.59 2.37v15.667h2.251c3.106 0 5.633 2.511 5.633 5.611v5.082h12.404v3.512l-6.71.813a1.227 1.227 0 10.295 2.435l7.487-.907 7.489.907a1.228 1.228 0 10.295-2.436l-6.398-.774v-3.55h10.37V17.302c0-3.1 2.516-5.611 5.622-5.611h3.981z"/><path d="M54.524 14.81H44.017a2.767 2.767 0 00-2.773 2.766v15.02a2.775 2.775 0 002.773 2.776h10.507a2.774 2.774 0 002.772-2.776v-15.02a2.766 2.766 0 00-2.772-2.766M6.841 21.57H2.084C.934 21.57 0 22.502 0 23.65v9.221c0 1.158.934 2.089 2.084 2.089H6.84c1.16 0 2.094-.931 2.094-2.089V23.65c0-1.148-.934-2.08-2.094-2.08"/></g></svg>
